icons/1_Primary/Namebase.svg

<svg xmlns="http://www.w3.org/2000/svg" width="1024" height="1024" fill="none">
   <g clip-path="url(#a)">
      <path fill="#9ABEFF" d="M512 1024c282.77 0 512-229.23 512-512S794.77 0 512 0 0 229.23 0 512s229.23 512 512 512Z"/>
      <path fill="#fff" d="M677.59 347.08c24.56 0 44.45-20.4 44.45-45.56 0-25.16-19.9-45.52-44.45-45.52-24.55 0-44.45 20.4-44.45 45.54s19.91 45.54 44.45 45.54ZM706.48 519v191.24H582V519c0-44-34.82-79.69-77.79-79.69-42.97 0-77.78 35.69-77.78 79.69v191.24H302V519c0-114.42 90.57-207.2 202.25-207.2 111.69-.01 202.23 92.75 202.23 207.2Z"/>
   </g>
   <defs>
      <clipPath id="a">
         <path fill="#fff" d="M0 0h1024v1024H0z"/>
      </clipPath>
   </defs>
</svg>

<svg width="1024" height="1024" viewBox="0 0 1024 1024" fill="none" xmlns="http://www.w3.org/2000/svg">
<g clip-path="url(#clip0_2_2865)">
<path d="M512 1024C794.77 1024 1024 794.77 1024 512C1024 229.23 794.77 0 512 0C229.23 0 0 229.23 0 512C0 794.77 229.23 1024 512 1024Z" fill="#9ABEFF"/>
<path d="M677.59 347.08C702.15 347.08 722.04 326.68 722.04 301.52C722.04 276.36 702.14 256 677.59 256C653.04 256 633.14 276.4 633.14 301.54C633.14 326.68 653.05 347.08 677.59 347.08ZM706.48 519V710.24H582V519C582 475 547.18 439.31 504.21 439.31C461.24 439.31 426.43 475 426.43 519V710.24H302V519C302 404.58 392.57 311.8 504.25 311.8C615.94 311.79 706.48 404.55 706.48 519Z" fill="white"/>
</g>
<defs>
<clipPath id="clip0_2_2865">
<rect width="1024" height="1024" fill="white"/>
</clipPath>
</defs>
</svg>
